Obsidian-SemiLight/actions/24s/zoom-out-y.svg

<svg viewBox="0 0 24 24" xmlns="http://www.w3.org/2000/svg"><path d="m4 4v2h1v-1h1v-1zm4 0v1h1v1h1v-2zm5 0v1h6v6h1v-6-1zm-9 4v2h2v-1h-1v-1zm5 0v1h-1v1h2v-2zm-5 5v7h1 6v-1h-6v-6zm11.998047.429688v4.65625l-1.621094-1.621094-.707031.707031 2.121094 2.121094.707031.707031 2.830078-2.828125-.707031-.707031-1.623047 1.621094v-4.65625z" fill="#4d4d4d"/></svg>

<svg xmlns="http://www.w3.org/2000/svg" viewBox="0 0 24 24">
  <defs id="defs3051">
    <style type="text/css" id="current-color-scheme">
      .ColorScheme-Text {
        color:#4d4d4d;
      }
      </style>
  </defs>
 <path style="fill:currentColor;fill-opacity:1;stroke:none" 
     d="M 4 4 L 4 6 L 5 6 L 5 5 L 6 5 L 6 4 L 4 4 z M 8 4 L 8 5 L 9 5 L 9 6 L 10 6 L 10 4 L 8 4 z M 13 4 L 13 5 L 19 5 L 19 11 L 20 11 L 20 5 L 20 4 L 13 4 z M 4 8 L 4 10 L 6 10 L 6 9 L 5 9 L 5 8 L 4 8 z M 9 8 L 9 9 L 8 9 L 8 10 L 10 10 L 10 8 L 9 8 z M 4 13 L 4 20 L 5 20 L 11 20 L 11 19 L 5 19 L 5 13 L 4 13 z M 15.998047 13.429688 L 15.998047 18.085938 L 14.376953 16.464844 L 13.669922 17.171875 L 15.791016 19.292969 L 16.498047 20 L 19.328125 17.171875 L 18.621094 16.464844 L 16.998047 18.085938 L 16.998047 13.429688 L 15.998047 13.429688 z "
     class="ColorScheme-Text"
     />
</svg>
